X:1
T:Wohlfahrt Violin Studies - #1
T:Wohlfahrt Foundation Studies - No. 7
T:Op 45 No 18
T:Franz Wohlfahrt
C:Franz Wohlfahrt
%%score 1 { 2 | 3 }
L:1/8
Q:1/8=140
M:6/8
K:C
V:1 treble nm="Violin"
V:2 treble nm="Piano"
V:3 bass 
V:1
"G""^7." (e/ d/ B/ d/ B/ d/)"C" (c/ e/ c/ e/ c/ e/) |"G" (d/ B/ d/ B/ c/ e/) (d/ B/ d/ g/ b) | %2
"D7" (c/ A/ c/ A/ B/ d/) (c/ A/ c/ ^f/ a) |"G" (B/ G/ ^F/ A/ G/ B/)"D7" (A/ c/ B/ d/ c/ e/) | %4
"G" (d/ B/ d/ B/ d/ B/)"C" (c/ e/ c/ e/ c/ e/) |"G" (d/ B/ d/ B/ c/ e/) (d/ B/ d/ g/ b) | %6
"D" ^f/ a/ b/ a/ g/ f/"A7" e/ a/ b/ a/ g/ e/ |"D" d/ A/ d/ A/ ^c/ A/"D7" e/ A/ d/ A/ =c/ A/ | %8
"G" (d/ B/ d/ B/ d/ B/)"C" (c/ e/ c/ e/ c/ e/) |"G" (d/ B/ d/ B/ c/ e/) (d/ B/ d/ g/ b) | %10
"D7" (c/ A/ c/ A/ B/ d/) (c/ A/ c/ ^f/ a) |"G" (B/ G/ ^F/ A/ G/ B/)"D7" (A/ c/ B/ d/ c/ e/) | %12
"G" (d/ B/ d/ B/ d/ B/)"C" (c/ e/ c/ e/ c/ e/) |"G" (d/ B/ d/ B/ c/ e/) (d/ B/ d/ g/ b) | %14
 b/ a/ b/ a/ ^f/ a/ b/ a/ b/ a/ g/ e/ | d ^c/ d/ c/ d/ e/ d/ e/ d/ e/ d/ | %16
"D7" (=c/ d/ c/ d/ c/ ^f/) (b/ a/ b/ a/ f/) c/ |"G" (B/ d/ ^c/ d/ c/ d/) (e/ d/ e/ d/ B/ G/) | %18
"D7" (=c/ d/ c/ d/ c/ ^f/) (b/ a/ b/ a/ f/) c/ |"G" (B/ d/ ^c/ d/ c/ d/) (e/ d/ e/ d/ B/ G/) | %20
"C" (E/ G/ E/ G/ E/ G/) (A/ G/ ^F/ G/ A/ B/) | (c/ B/ c/ B/ c/ B/) (c/ B/ c/ B/ c/ B/) | %22
 c/ d/ e/ d/ e/ d/ B/ d/ e/ d/ e/ d/ | A/ d/ ^c/ d/ c/ d/ e/ d/ e/ d/ e/ d/ | %24
"D7" =c/ d/ c/ d/ c/ d/ b/ a/ b/ a/ ^f/ c/ |"G" B/ d/ ^c/ d/ c/ d/ e/ d/ e/ d/ B/ G/ | %26
"D7" =c/ d/ c/ d/ c/ d/ b/ a/ b/ a/ ^f/ c/ |"G" B/ d/ ^c/ d/ c/ d/ e/ d/ e/ d/ B/ G/ | %28
"C" (E/ G/ E/ G/ E/ G/) (A/ G/ ^F/ G/ A/ B/) | (c/ B/ c/ B/ c/ B/) (c/ B/ A/ B/ c/ d/) | %30
 (e/ d/ e/ d/ B/ d/) (B/ d/ e/ d/ B/ d/) |"D7" (A/ d/ e/ d/ e/ d/) (e/ d/ e/ d/ e/ d/) | %32
"G" (e/ d/ B/ d/ B/ d/)"C" (c/ e/ c/ e/ c/ e/) |"G" (d/ B/ d/ B/ c/ e/) (d/ B/ d/ g/ b) | %34
"D7" (c/ A/ c/ A/ B/ d/) (c/ A/ c/ ^f/ a) |"G" (B/ G/ ^F/ A/ G/ B/)"D7" (A/ c/ B/ d/ c/ e/) | %36
"G" (d/ B/ d/ B/ d/ B/)"C" (c/ e/ c/ e/ c/ e/) |"G" (d/ B/ d/ B/ c/ e/) (d/ B/ d/ g/ b) | %38
 A/ c/ e/ d/ e/ d/ c/ ^f/ b/ a/ b/ a/ | g/ d/ B/ G/ D/ B,/ G, z2 |] %40
V:2
"G" (e/d/B/d/B/d/)"C" (c/e/c/e/c/e/) |"G" (d/B/d/B/"C"c/e/)"G" (d/B/d/g/b) | %2
"D7" (c/A/c/A/B/d/) (c/A/c/^f/a) |"G" (B/G/^F/A/G/B/)"D7" (A/c/B/d/c/e/) | %4
"G" (d/B/d/B/d/B/)"C" (c/e/c/e/c/e/) |"G" (d/B/d/B/c/e/) (d/B/d/g/b) | %6
"D" ^f/a/b/a/g/f/"A7" e/a/b/a/g/e/ |"D" d/A/d/A/^c/A/"D7" e/A/d/A/=c/A/ | %8
"G" (d/B/d/B/d/B/)"C" (c/e/c/e/c/e/) |"G" (d/B/d/B/c/e/) (d/B/d/g/b) | %10
"D7" (c/A/c/A/B/d/) (c/A/c/^f/a) |"G" (B/G/^F/A/G/B/)"D7" (A/c/B/d/c/e/) | %12
"G" (d/B/d/B/d/B/)"C" (c/e/c/e/c/e/) |"G" (d/B/d/B/c/e/) (d/B/d/g/b) | b/a/b/a/^f/a/ b/a/b/a/g/e/ | %15
 d^c/d/c/d/ e/d/e/d/e/d/ |"D7" (=c/d/c/d/c/^f/) (b/a/b/a/f/)c/ | %17
"G" (B/d/^c/d/c/d/) (e/d/e/d/B/G/) |"D7" (=c/d/c/d/c/^f/) (b/a/b/a/f/)c/ | %19
"G" (B/d/^c/d/c/d/) (e/d/e/d/B/G/) |"C" (E/G/E/G/E/G/) (A/G/^F/G/A/B/) | %21
"C__" (c/B/c/B/c/B/)"C__" (c/B/c/B/c/B/) |"C__" c/d/e/d/e/d/ B/d/e/d/e/d/ | %23
"D" A/d/^c/d/c/d/ e/d/e/d/e/d/ |"D7" =c/d/c/d/c/d/ b/a/b/a/^f/c/ |"G" B/d/^c/d/c/d/ e/d/e/d/B/G/ | %26
"D7" =c/d/c/d/c/d/ b/a/b/a/^f/c/ |"G" B/d/^c/d/c/d/ e/d/e/d/B/G/ | %28
"C" (E/G/E/G/E/G/) (A/G/^F/G/A/B/) |"C__" (c/B/c/B/c/B/)"C__" (c/B/A/B/c/d/) | %30
"C__" (e/d/e/d/B/d/) (B/d/e/d/B/d/) |"D7" (A/d/e/d/e/d/) (e/d/e/d/e/d/) | %32
"G" (e/d/B/d/B/d/)"C" (c/e/c/e/c/e/) |"G" (d/B/d/B/c/e/) (d/B/d/g/b) | %34
"D7" (c/A/c/A/B/d/) (c/A/c/^f/a) |"G" (B/G/^F/A/G/B/)"D7" (A/c/B/d/c/e/) | %36
"G" (d/B/d/B/d/B/)"C" (c/e/c/e/c/e/) |"G" (d/B/d/B/c/e/) (d/B/d/g/b) | %38
"Am" A/c/e/d/e/d/"D" c/^f/b/a/b/a/ |"G" g/d/B/G/D/B,/ G, z2 |] %40
V:3
 G,,[B,,D,][B,,D,] G,,[C,E,][C,E,] | G,,[B,,D,][G,,C,E,] G,,[B,,D,][B,,D,] | %2
 D,,[^F,,A,,][D,,G,,B,,] D,,[F,,A,,][F,,A,,] | G,,[B,,D,][B,,D,] D,,[^F,,A,,][F,,A,,] | %4
 G,,[B,,D,][B,,D,] G,,[C,E,][C,E,] | G,,[B,,D,][G,,C,E,] G,,[B,,D,][B,,D,] | %6
 [D,^F,A,]3 [A,,^C,E,]3 | [D,^F,A,]3 [D,F,A,]3 | G,,[B,,D,][B,,D,] G,,[C,E,][C,E,] | %9
 G,,[B,,D,][G,,C,E,] G,,[B,,D,][B,,D,] | D,,[^F,,A,,][D,,G,,B,,] D,,[F,,A,,][F,,A,,] | %11
 G,,[B,,D,][B,,D,] D,,[^F,,A,,][F,,A,,] | G,,[B,,D,][B,,D,] G,,[C,E,][C,E,] | %13
 G,,[B,,D,][G,,C,E,] G,,[B,,D,][B,,D,] | [D,^F,A,]3 [A,,^C,E,]3 | [D,^F,A,]3 [D,F,A,]3 | %16
 D,[^F,A,][F,A,] D,[F,A,][F,A,] | G,[B,D][B,D] G,[B,D][B,D] | D,[^F,A,][F,A,] D,[F,A,][F,A,] | %19
 G,[B,D][B,D] G,[B,D][B,D] | C,[E,G,][E,G,] C,[E,G,][E,G,] | A,,[C,E,][C,E,] A,,[C,E,][C,E,] | %22
 C,[E,G,][E,G,] G,,[B,,D,][B,,D,] | D,[^F,A,][F,A,] D,[F,A,][F,A,] | %24
 D,[^F,A,][F,A,] D,[F,A,][F,A,] | G,[B,D][B,D] G,[B,D][B,D] | D,[^F,A,][F,A,] D,[F,A,][F,A,] | %27
 G,[B,D][B,D] G,[B,D][B,D] | C,[E,G,][E,G,] C,[E,G,][E,G,] | A,,[C,E,][C,E,] A,,[C,E,][C,E,] | %30
 C,[E,G,][E,G,] G,,[B,,D,][B,,D,] | D,[^F,A,][F,A,] D,[F,A,][F,A,] | %32
 G,,[B,,D,][B,,D,] G,,[C,E,][C,E,] | G,,[B,,D,][G,,C,E,] G,,[B,,D,][B,,D,] | %34
 D,,[^F,,A,,][D,,G,,B,,] D,,[F,,A,,][F,,A,,] | G,,[B,,D,][B,,D,] D,,[^F,,A,,][F,,A,,] | %36
 G,,[B,,D,][B,,D,] G,,[C,E,][C,E,] | G,,[B,,D,][G,,C,E,] G,,[B,,D,][B,,D,] | %38
 A,,[C,E,][C,E,] D,,[^F,,A,,][F,,A,,] | [G,,B,,D,G,]6 |] %40

